img/icon/list-before-3.svg

<svg width="40" height="40" viewBox="0 0 40 40" fill="none" xmlns="http://www.w3.org/2000/svg">
<path fill-rule="evenodd" clip-rule="evenodd" d="M36.129 23.2258C36.129 24.8374 35.3858 26.2774 34.2252 27.2252C37.5077 27.8465 40 30.7323 40 34.1936V40H25.1613V32.5806C25.1613 32.0471 24.7271 31.6129 24.1935 31.6129H23.2258V32.7639L21.4239 33.2065C21.3445 33.4206 21.2548 33.6355 21.1555 33.8484L22.1181 35.4387L18.6652 38.8916L17.0748 37.929C16.8613 38.0284 16.6471 38.1181 16.4329 38.1974L15.9897 40H11.1071L10.6645 38.1981C10.4503 38.1187 10.2355 38.029 10.0226 37.9297L8.43226 38.8923L4.97935 35.4394L5.94194 33.849C5.84258 33.6355 5.7529 33.4213 5.67355 33.2071L3.87097 32.7639V27.8813L5.67355 27.4381C5.7529 27.2239 5.84258 27.0097 5.94194 26.7961L4.97935 25.2058L5.66903 24.5161H4.51613C3.44903 24.5161 2.58065 23.6477 2.58065 22.5806V21.2903C2.58065 20.2232 3.44903 19.3548 4.51613 19.3548H5.80645C6.16258 19.3548 6.45161 19.0658 6.45161 18.7097V18.0645H0V14.8387C0 11.8303 1.88452 9.26 4.53226 8.22903C3.35484 7.4129 2.58065 6.05355 2.58065 4.51613C2.58065 2.02645 4.6071 0 7.09677 0C9.58645 0 11.6129 2.02645 11.6129 4.51613C11.6129 6.05355 10.8387 7.4129 9.66129 8.22903C11.3858 8.9 12.7819 10.2245 13.5484 11.8994C14.3148 10.2245 15.711 8.90065 17.4355 8.22903C16.2581 7.4129 15.4839 6.05355 15.4839 4.51613C15.4839 2.02645 17.5103 0 20 0C22.4897 0 24.5161 2.02645 24.5161 4.51613C24.5161 6.05355 23.7419 7.4129 22.5645 8.22903C25.2123 9.26 27.0968 11.8303 27.0968 14.8387V18.0645H20.6452V18.7097C20.6452 19.0658 20.9342 19.3548 21.2903 19.3548H22.5806C23.6477 19.3548 24.5161 20.2232 24.5161 21.2903V22.5806C24.5161 23.6477 23.6477 24.5161 22.5806 24.5161H21.4277L22.1174 25.2058L21.1542 26.7961C21.1819 26.8559 21.2055 26.9158 21.2291 26.9758C21.245 27.0162 21.2609 27.0565 21.2781 27.0968H27.5652C26.4897 26.1503 25.8065 24.7677 25.8065 23.2258C25.8065 20.38 28.1219 18.0645 30.9677 18.0645C33.8135 18.0645 36.129 20.38 36.129 23.2258ZM30.9677 19.3548C28.8329 19.3548 27.0968 21.091 27.0968 23.2258C27.0968 25.3606 28.8329 27.0968 30.9677 27.0968C33.1026 27.0968 34.8387 25.3606 34.8387 23.2258C34.8387 21.091 33.1026 19.3548 30.9677 19.3548ZM16.7742 4.51613C16.7742 2.73742 18.2213 1.29032 20 1.29032C21.7787 1.29032 23.2258 2.73742 23.2258 4.51613C23.2258 6.29484 21.7787 7.74194 20 7.74194C18.2213 7.74194 16.7742 6.29484 16.7742 4.51613ZM25.8065 14.8387C25.8065 11.6368 23.2019 9.03226 20 9.03226C16.7981 9.03226 14.1935 11.6368 14.1935 14.8387V16.7742H16.129V11.6129H17.4194V16.7742H22.5806V11.6129H23.871V16.7742H25.8065V14.8387ZM3.87097 4.51613C3.87097 2.73742 5.31806 1.29032 7.09677 1.29032C8.87548 1.29032 10.3226 2.73742 10.3226 4.51613C10.3226 6.29484 8.87548 7.74194 7.09677 7.74194C5.31806 7.74194 3.87097 6.29484 3.87097 4.51613ZM7.09677 9.03226C3.89484 9.03226 1.29032 11.6368 1.29032 14.8387V16.7742H3.22581V11.6129H4.51613V16.7742H9.67742V11.6129H10.9677V16.7742H12.9032V14.8387C12.9032 11.6368 10.2987 9.03226 7.09677 9.03226ZM4.51613 23.2258C4.16 23.2258 3.87097 22.9368 3.87097 22.5806V21.2903C3.87097 20.9342 4.16 20.6452 4.51613 20.6452H5.80645C6.87355 20.6452 7.74194 19.7768 7.74194 18.7097V18.0645H12.9032H14.1935H19.3548V18.7097C19.3548 19.7768 20.2232 20.6452 21.2903 20.6452H22.5806C22.9368 20.6452 23.2258 20.9342 23.2258 21.2903V22.5806C23.2258 22.9368 22.9368 23.2258 22.5806 23.2258H20.1374L18.6652 21.7535L17.0748 22.7161C16.8613 22.6168 16.6471 22.5271 16.4329 22.4477L15.9897 20.6452H11.1071L10.6639 22.4477C10.4497 22.5271 10.2355 22.6168 10.0219 22.7161L8.43161 21.7535L6.95935 23.2258H4.51613ZM20.4226 32.1245L21.9355 31.7523V31.6129H19.2097C18.6181 34.2239 16.2781 36.129 13.5484 36.129C10.3465 36.129 7.74194 33.5245 7.74194 30.3226C7.74194 27.1206 10.3465 24.5161 13.5484 24.5161C15.4839 24.5161 17.2884 25.5006 18.3613 27.0974H19.8639C19.8581 27.0858 19.8529 27.0742 19.8471 27.0626L19.68 26.7413L20.4897 25.4032L18.4684 23.3819L17.1303 24.1916L16.809 24.0245C16.4387 23.8323 16.0639 23.6755 15.6961 23.5587L15.3503 23.4497L14.9781 21.9355H12.1187L11.7471 23.449L11.4013 23.5581C11.0329 23.6748 10.6581 23.8316 10.2884 24.0239L9.9671 24.191L8.62903 23.3813L6.60774 25.4026L7.41742 26.7406L7.25032 27.0619C7.05806 27.4323 6.90129 27.8071 6.78452 28.1748L6.67548 28.5206L5.16129 28.8929V31.7523L6.67484 32.1239L6.78387 32.4697C6.90064 32.8381 7.05742 33.2129 7.24968 33.5826L7.41677 33.9039L6.6071 35.2419L8.62839 37.2632L9.96645 36.4535L10.2877 36.6206C10.6574 36.8129 11.0323 36.9697 11.4019 37.0871L11.7465 37.1968L12.1187 38.7097H14.9781L15.3497 37.1961L15.6955 37.0871C16.0639 36.9703 16.4387 36.8135 16.8084 36.6213L17.1297 36.4542L18.4677 37.2639L20.489 35.2426L19.6794 33.9045L19.8465 33.5832C20.0387 33.2136 20.1955 32.8387 20.3129 32.469L20.4226 32.1245ZM15.0897 31.4852C14.7323 31.9581 14.171 32.2581 13.5484 32.2581C12.4813 32.2581 11.6129 31.3897 11.6129 30.3226C11.6129 29.2555 12.4813 28.3871 13.5484 28.3871C13.594 28.3871 13.6385 28.3949 13.6832 28.4028C13.7087 28.4073 13.7342 28.4118 13.76 28.4148C13.6271 28.7019 13.5484 29.0181 13.5484 29.3548C13.5484 30.3477 14.1968 31.1839 15.0897 31.4852ZM13.5484 27.0968C13.9768 27.0968 14.4006 27.1839 14.7935 27.3477C15.0994 27.1929 15.4406 27.0968 15.8065 27.0968H16.7039C15.869 26.2839 14.7394 25.8065 13.5484 25.8065C11.0587 25.8065 9.03226 27.8329 9.03226 30.3226C9.03226 32.8123 11.0587 34.8387 13.5484 34.8387C15.571 34.8387 17.3148 33.4942 17.8748 31.6129H16.5039C15.9974 32.7729 14.8471 33.5484 13.5484 33.5484C11.7697 33.5484 10.3226 32.1013 10.3226 30.3226C10.3226 28.5439 11.7697 27.0968 13.5484 27.0968ZM38.7097 38.7097H36.7742V31.6129H35.4839V38.7097H26.4516V32.5806C26.4516 31.3355 25.4387 30.3226 24.1935 30.3226H15.8065C15.2729 30.3226 14.8387 29.8884 14.8387 29.3548C14.8387 28.8213 15.2729 28.3871 15.8065 28.3871H32.9032C36.1052 28.3871 38.7097 30.9916 38.7097 34.1936V38.7097ZM40 12.2581C40 9.76839 37.9735 7.74194 35.4839 7.74194H32.9032C30.4135 7.74194 28.3871 9.76839 28.3871 12.2581V16.7742H35.4839C37.9735 16.7742 40 14.7477 40 12.2581ZM29.6774 12.2581C29.6774 10.4794 31.1245 9.03226 32.9032 9.03226H35.4839C37.2626 9.03226 38.7097 10.4794 38.7097 12.2581C38.7097 14.0368 37.2626 15.4839 35.4839 15.4839H29.6774V12.2581ZM30.9677 12.9032H32.2581V14.1935H30.9677V12.9032ZM34.8387 12.9032H33.5484V14.1935H34.8387V12.9032ZM36.129 12.9032H37.4194V14.1935H36.129V12.9032ZM37.4194 10.3226H30.9677V11.6129H37.4194V10.3226Z" fill="white"/>
</svg>

<svg width="40" height="40" fill="none" xmlns="http://www.w3.org/2000/svg"><path fill-rule="evenodd" clip-rule="evenodd" d="M36.129 23.226a5.154 5.154 0 01-1.904 4c3.283.62 5.775 3.506 5.775 6.968V40H25.161v-7.42a.969.969 0 00-.968-.967h-.967v1.15l-1.802.444c-.08.214-.17.428-.268.641l.962 1.59-3.453 3.454-1.59-.963c-.214.1-.428.19-.642.268L15.99 40h-4.883l-.442-1.802a8.558 8.558 0 01-.642-.268l-1.59.962-3.454-3.453.963-1.59a8.617 8.617 0 01-.268-.642l-1.803-.443V27.88l1.803-.443c.079-.214.169-.428.268-.642l-.963-1.59.69-.69H4.516a1.938 1.938 0 01-1.935-1.935v-1.29c0-1.068.868-1.936 1.935-1.936h1.29a.645.645 0 00.646-.645v-.646H0V14.84c0-3.009 1.885-5.579 4.532-6.61a4.514 4.514 0 01-1.951-3.713A4.522 4.522 0 017.097 0a4.522 4.522 0 014.516 4.516A4.514 4.514 0 019.66 8.23a7.126 7.126 0 013.887 3.67 7.128 7.128 0 013.888-3.67 4.514 4.514 0 01-1.952-3.713A4.522 4.522 0 0120 0a4.522 4.522 0 014.516 4.516 4.514 4.514 0 01-1.951 3.713c2.647 1.031 4.532 3.601 4.532 6.61v3.225h-6.452v.646c0 .356.29.645.645.645h1.29c1.068 0 1.936.868 1.936 1.935v1.29a1.938 1.938 0 01-1.935 1.936h-1.153l.69.69-.964 1.59c.028.06.052.12.075.18.016.04.032.08.05.12h6.286a5.146 5.146 0 01-1.759-3.87 5.167 5.167 0 015.162-5.162 5.167 5.167 0 015.161 5.162zm-5.161-3.871a3.875 3.875 0 00-3.871 3.87 3.875 3.875 0 003.87 3.872 3.875 3.875 0 003.872-3.871 3.875 3.875 0 00-3.871-3.871zM16.774 4.516A3.23 3.23 0 0120 1.29a3.23 3.23 0 013.226 3.226A3.23 3.23 0 0120 7.742a3.23 3.23 0 01-3.226-3.226zm9.032 10.323A5.813 5.813 0 0020 9.032a5.813 5.813 0 00-5.806 5.807v1.935h1.935v-5.161h1.29v5.161h5.162v-5.161h1.29v5.161h1.936V14.84zM3.872 4.516A3.23 3.23 0 017.097 1.29a3.23 3.23 0 013.226 3.226 3.23 3.23 0 01-3.226 3.226A3.23 3.23 0 013.87 4.516zm3.226 4.516A5.813 5.813 0 001.29 14.84v1.935h1.936v-5.161h1.29v5.161h5.161v-5.161h1.29v5.161h1.936V14.84a5.813 5.813 0 00-5.806-5.807zm-2.58 14.194a.645.645 0 01-.646-.645v-1.29c0-.357.289-.646.645-.646h1.29a1.938 1.938 0 001.936-1.935v-.646h11.613v.646c0 1.067.868 1.935 1.935 1.935h1.29c.357 0 .646.29.646.645v1.29a.645.645 0 01-.645.646h-2.444l-1.472-1.473-1.59.963a8.664 8.664 0 00-.642-.268l-.443-1.803h-4.883l-.443 1.803c-.214.08-.428.169-.642.268l-1.59-.963-1.473 1.473H4.516zm15.906 8.898l1.513-.372v-.14H19.21a5.813 5.813 0 01-5.662 4.517 5.813 5.813 0 01-5.806-5.806 5.813 5.813 0 015.806-5.807c1.936 0 3.74.985 4.813 2.581h1.503l-.017-.034-.167-.322.81-1.338-2.022-2.021-1.338.81-.321-.168a7.084 7.084 0 00-1.113-.465l-.346-.11-.372-1.514h-2.86l-.37 1.514-.347.11a7.018 7.018 0 00-1.113.465l-.32.167-1.339-.81-2.021 2.022.81 1.338-.168.32c-.192.371-.349.746-.465 1.114l-.11.346-1.514.372v2.86l1.514.37.109.347c.117.368.273.743.466 1.113l.167.32-.81 1.339 2.021 2.021 1.338-.81.322.168c.37.192.744.349 1.114.466l.345.11.372 1.513h2.86l.37-1.514.346-.109a7.037 7.037 0 001.113-.466l.322-.167 1.338.81 2.021-2.021-.81-1.339.168-.32c.192-.37.348-.745.466-1.115l.11-.345zm-5.333-.639a1.931 1.931 0 01-3.477-1.162c0-1.067.868-1.936 1.935-1.936.046 0 .09.008.135.016.026.004.051.009.077.012a2.228 2.228 0 00-.212.94c0 .993.649 1.829 1.542 2.13zm-1.542-4.388c.429 0 .853.087 1.245.25.306-.154.648-.25 1.014-.25h.897a4.533 4.533 0 00-3.156-1.29 4.522 4.522 0 00-4.516 4.516 4.522 4.522 0 004.516 4.516 4.521 4.521 0 004.327-3.226h-1.371a3.226 3.226 0 11-2.956-4.516zM38.71 38.71h-1.936v-7.097h-1.29v7.097h-9.032v-6.13a2.26 2.26 0 00-2.259-2.257h-8.387a.969.969 0 010-1.936h17.097a5.813 5.813 0 015.807 5.807v4.516zM40 12.258a4.522 4.522 0 00-4.516-4.516h-2.58a4.522 4.522 0 00-4.517 4.516v4.516h7.097A4.522 4.522 0 0040 12.258zm-10.323 0a3.23 3.23 0 013.226-3.226h2.58a3.23 3.23 0 013.227 3.226 3.23 3.23 0 01-3.226 3.226h-5.807v-3.226zm1.29.645h1.291v1.29h-1.29v-1.29zm3.872 0h-1.29v1.29h1.29v-1.29zm1.29 0h1.29v1.29h-1.29v-1.29zm1.29-2.58h-6.451v1.29h6.451v-1.29z" fill="#fff"/></svg>
